X:1
T:God Holds the Future in His Hands
T:James David  Vaughan
T:God Holds the Future in His Hands
T:Public Domain
T:Public Domain
T:Public Domain
C:James David  Vaughan
Z:Public Domain
%%score ( 1 2 ) 3
L:1/8
M:4/4
K:Ab
V:1 treble 
V:2 treble 
V:3 bass 
V:1
 [CE]2 | [EA]3 [DF] [CE][CE][DF][CE] | [EA]6 [EA]2 | [Ec]3 [Ec] [Ac]A[GB][Ac] | [GB]6 [DE]2 | %5
w: 1.~Dread|not the things that are a-|head, The|bur- dens great, the sink- ing|sands, The|
w: 2.~We|know not what to- mor- row|hides, Of|sun or storm or good or|ill; We|
w: 3.~His|hand cre- at- ed earth and|sky, The|ze- phyrs and the storms that|rage, And|
w: 4.~Live|close to Him and trust His|love, As-|sured that while on earth we|roam, What-|
 [CA]3 [DF] [CE][CE][DF][CE] | [EA]6 [EA]2 | [Ac]3 [Ac] [Ac]A[GB][GB] | [EA]6 ||"^Refrain" [Ac]2 | %10
w: thorns that o’er the path are|spread, God|holds the fu- ture in His|hands.||
w: on- ly know His dear hand|guides, And|He will be our Fa- ther|still.|God|
w: years to come and years gone|by To|Him are but an o- pen|page.||
w: e’er may come, He bends a-|bove To|guide His child- ren safe- ly|home.||
 [Ae]3 [Af] [Ae][Ac][EB][EA] | (AAGG A2) [Ac]2 | [Ae]3 [Ac] [EA]A[GB][Ac] | (GGAA [GB])EFE | %14
w: ||||
w: holds the fu- ture in His|hands * * * * And|ery heart He un- der- stands.|On * * * * Him de- pend,|
w: ||||
w: ||||
 (z EEE [EA])ABA | z EEA [Ac]2 [Ac]2 | [Ae]3 [Ac] [Ac]A[GB][GB] | [EA]6 |] %18
w: ||||
w: * * * * is * your|* * * * He|* the fu- ture in His|hands.|
w: ||||
w: ||||
V:2
 x2 | x8 | x8 | x8 | x8 | x8 | x8 | x8 | x6 || x2 | x8 | e6 x2 | x8 | B4- x4 | A4- x4 | c4- x4 | %16
w: ||||||||||||||||
w: |||||||||||ev-||He|Friend,|holds|
 x8 | x6 |] %18
w: ||
w: ||
V:3
 [A,,A,]2 | [A,,C]3 [A,,A,] [A,,A,][A,,A,][A,,A,][A,,A,] | [A,,C]6 [A,C]2 | %3
w: ~|~ ~ ~ ~ ~ ~|~ ~|
 A,3 [A,C] [A,E][CE][B,E][A,E] | [E,E]6 [E,G,]2 | [A,,A,]3 [A,,A,] [A,,A,][A,,A,][A,,A,][A,,A,] | %6
w: ~ ~ ~ ~ ~ ~|~ ~|~ ~ ~ ~ ~ ~|
 [A,,C]6 [A,C]2 | [A,E]3 [A,E] [F,F][F,C][E,D][E,D] | [A,,C]6 || [A,E]2 | %10
w: ~ ~|~ ~ ~ ~ ~ ~|~|~|
 [A,C]3 [A,D] [A,C][A,E][A,D][A,C] | [A,C][A,C][E,B,][E,B,] [A,C]2 [A,E]2 | %12
w: ~ ~ ~ ~ ~ ~|~ His bless- èd hands ~|
 [A,C]3 [A,E] [A,C][CE][B,E][A,E] | [E,E][E,E][F,=D][F,D] [E,E] z z2 | %14
w: ~ ~ ~ ~ ~ ~|~ He un- der- stands|
 z [A,,C][A,,C][A,,C] [A,,C] z z2 | z [A,,A,][C,A,][E,C] [A,E]2 [A,E]2 | %16
w: On Him de- pend;|He is your Friend; *|
 [A,C]3 [A,E] [F,F][F,C][E,D][E,D] | [A,,C]6 |] %18
w: ||

